X:639
R:Slängpolska
T: Polska # 639
M:3/4
L:1/16
K:D
Q:110
| E2DE A,4 C2E2 | E2FE D4 F2A2 | A2Bc d2f2 e2d2 |1 cdcB ABAG FDF2 :|2 cec2 d8 |]
|:[K: Dmin] fefg a4 f2a2 |[K: F] g2e2 c2e2 g2e2 | f2gf e2fe d2ed | ^c2Ac d8 :|

